X:4689
T:Nur Nix neichs net" Bayrisch Polka - schottisch/schottische/scottish
O:england
S:aus Archivmaterial zusammengestellt
N:please mail errors to: simon.wascher@chello.at
M:2/4
L:1/16
K:G
d2|B2e2 d^cd2|c2e2 d^cd2|d2e2 fga2|bage dcBc|
B2e2 d^cd2|c2e2 d^cd2|d2e2 fgab|g2g2g2:|
|:d2|b2bf g2ge|dedc B2d2|d2c'ba2d2|d2ba g2d2|
b2bf g2ge|dedc B2d2|d2c'b aefa|g2b2g2:|
